;Exported by Snapmaker
;Post Processor: snapmaker_freecad_post
;Output Time:2020-06-19 18:24:41.836379

G0 Z10.00 F120
G0 Z0.50 F120
G21
M3 S0
;finish operation: T1: flat end mill (3.175 mm)
G0 Z8.000
G0 X7.611 Y8.127
G0 Z6.000
G1 X7.611 Y8.127 Z2.800
G1 X11.834 Y0.746 Z2.800
G2 X11.828 Y-0.839 Z2.800 I-1.376 J-0.787
G1 X6.563 Y-9.876 Z2.800
G2 X5.187 Y-10.663 Z2.800 I-1.370 J0.798
G1 X-5.271 Y-10.622 Z2.800
G2 X-6.641 Y-9.824 Z2.800 I0.006 J1.585
G1 X-11.834 Y-0.746 Z2.800
G2 X-11.828 Y0.839 Z2.800 I1.376 J0.787
G1 X-6.563 Y9.876 Z2.800
G2 X-5.187 Y10.663 Z2.800 I1.370 J-0.798
G1 X5.271 Y10.622 Z2.800
G2 X6.641 Y9.824 Z2.800 I-0.006 J-1.585
G1 X7.611 Y8.127 Z2.800
G1 X7.611 Y8.127 Z2.600
G1 X11.834 Y0.746 Z2.600
G2 X11.828 Y-0.839 Z2.600 I-1.376 J-0.787
G1 X6.563 Y-9.876 Z2.600
G2 X5.187 Y-10.663 Z2.600 I-1.370 J0.798
G1 X-5.271 Y-10.622 Z2.600
G2 X-6.641 Y-9.824 Z2.600 I0.006 J1.585
G1 X-11.834 Y-0.746 Z2.600
G2 X-11.828 Y0.839 Z2.600 I1.376 J0.787
G1 X-6.563 Y9.876 Z2.600
G2 X-5.187 Y10.663 Z2.600 I1.370 J-0.798
G1 X5.271 Y10.622 Z2.600
G2 X6.641 Y9.824 Z2.600 I-0.006 J-1.585
G1 X7.611 Y8.127 Z2.600
G1 X7.611 Y8.127 Z2.400
G1 X11.834 Y0.746 Z2.400
G2 X11.828 Y-0.839 Z2.400 I-1.376 J-0.787
G1 X6.563 Y-9.876 Z2.400
G2 X5.187 Y-10.663 Z2.400 I-1.370 J0.798
G1 X-5.271 Y-10.622 Z2.400
G2 X-6.641 Y-9.824 Z2.400 I0.006 J1.585
G1 X-11.834 Y-0.746 Z2.400
G2 X-11.828 Y0.839 Z2.400 I1.376 J0.787
G1 X-6.563 Y9.876 Z2.400
G2 X-5.187 Y10.663 Z2.400 I1.370 J-0.798
G1 X5.271 Y10.622 Z2.400
G2 X6.641 Y9.824 Z2.400 I-0.006 J-1.585
G1 X7.611 Y8.127 Z2.400
G1 X7.611 Y8.127 Z2.200
G1 X11.834 Y0.746 Z2.200
G2 X11.828 Y-0.839 Z2.200 I-1.376 J-0.787
G1 X6.563 Y-9.876 Z2.200
G2 X5.187 Y-10.663 Z2.200 I-1.370 J0.798
G1 X-5.271 Y-10.622 Z2.200
G2 X-6.641 Y-9.824 Z2.200 I0.006 J1.585
G1 X-11.834 Y-0.746 Z2.200
G2 X-11.828 Y0.839 Z2.200 I1.376 J0.787
G1 X-6.563 Y9.876 Z2.200
G2 X-5.187 Y10.663 Z2.200 I1.370 J-0.798
G1 X5.271 Y10.622 Z2.200
G2 X6.641 Y9.824 Z2.200 I-0.006 J-1.585
G1 X7.611 Y8.127 Z2.200
G1 X7.611 Y8.127 Z2.000
G1 X11.834 Y0.746 Z2.000
G2 X11.828 Y-0.839 Z2.000 I-1.376 J-0.787
G1 X6.563 Y-9.876 Z2.000
G2 X5.187 Y-10.663 Z2.000 I-1.370 J0.798
G1 X-5.271 Y-10.622 Z2.000
G2 X-6.641 Y-9.824 Z2.000 I0.006 J1.585
G1 X-11.834 Y-0.746 Z2.000
G2 X-11.828 Y0.839 Z2.000 I1.376 J0.787
G1 X-6.563 Y9.876 Z2.000
G2 X-5.187 Y10.663 Z2.000 I1.370 J-0.798
G1 X5.271 Y10.622 Z2.000
G2 X6.641 Y9.824 Z2.000 I-0.006 J-1.585
G1 X7.611 Y8.127 Z2.000
G1 X7.611 Y8.127 Z1.800
G1 X11.834 Y0.746 Z1.800
G2 X11.828 Y-0.839 Z1.800 I-1.376 J-0.787
G1 X6.563 Y-9.876 Z1.800
G2 X5.187 Y-10.663 Z1.800 I-1.370 J0.798
G1 X-5.271 Y-10.622 Z1.800
G2 X-6.641 Y-9.824 Z1.800 I0.006 J1.585
G1 X-11.834 Y-0.746 Z1.800
G2 X-11.828 Y0.839 Z1.800 I1.376 J0.787
G1 X-6.563 Y9.876 Z1.800
G2 X-5.187 Y10.663 Z1.800 I1.370 J-0.798
G1 X5.271 Y10.622 Z1.800
G2 X6.641 Y9.824 Z1.800 I-0.006 J-1.585
G1 X7.611 Y8.127 Z1.800
G1 X7.611 Y8.127 Z1.600
G1 X11.834 Y0.746 Z1.600
G2 X11.828 Y-0.839 Z1.600 I-1.376 J-0.787
G1 X6.563 Y-9.876 Z1.600
G2 X5.187 Y-10.663 Z1.600 I-1.370 J0.798
G1 X-5.271 Y-10.622 Z1.600
G2 X-6.641 Y-9.824 Z1.600 I0.006 J1.585
G1 X-11.834 Y-0.746 Z1.600
G2 X-11.828 Y0.839 Z1.600 I1.376 J0.787
G1 X-6.563 Y9.876 Z1.600
G2 X-5.187 Y10.663 Z1.600 I1.370 J-0.798
G1 X5.271 Y10.622 Z1.600
G2 X6.641 Y9.824 Z1.600 I-0.006 J-1.585
G1 X7.611 Y8.127 Z1.600
G1 X7.611 Y8.127 Z1.400
G1 X11.834 Y0.746 Z1.400
G2 X11.828 Y-0.839 Z1.400 I-1.376 J-0.787
G1 X6.563 Y-9.876 Z1.400
G2 X5.187 Y-10.663 Z1.400 I-1.370 J0.798
G1 X-5.271 Y-10.622 Z1.400
G2 X-6.641 Y-9.824 Z1.400 I0.006 J1.585
G1 X-11.834 Y-0.746 Z1.400
G2 X-11.828 Y0.839 Z1.400 I1.376 J0.787
G1 X-6.563 Y9.876 Z1.400
G2 X-5.187 Y10.663 Z1.400 I1.370 J-0.798
G1 X5.271 Y10.622 Z1.400
G2 X6.641 Y9.824 Z1.400 I-0.006 J-1.585
G1 X7.611 Y8.127 Z1.400
G1 X7.611 Y8.127 Z1.200
G1 X11.834 Y0.746 Z1.200
G2 X11.828 Y-0.839 Z1.200 I-1.376 J-0.787
G1 X6.563 Y-9.876 Z1.200
G2 X5.187 Y-10.663 Z1.200 I-1.370 J0.798
G1 X-5.271 Y-10.622 Z1.200
G2 X-6.641 Y-9.824 Z1.200 I0.006 J1.585
G1 X-11.834 Y-0.746 Z1.200
G2 X-11.828 Y0.839 Z1.200 I1.376 J0.787
G1 X-6.563 Y9.876 Z1.200
G2 X-5.187 Y10.663 Z1.200 I1.370 J-0.798
G1 X5.271 Y10.622 Z1.200
G2 X6.641 Y9.824 Z1.200 I-0.006 J-1.585
G1 X7.611 Y8.127 Z1.200
G1 X7.611 Y8.127 Z1.000
G1 X11.834 Y0.746 Z1.000
G2 X11.828 Y-0.839 Z1.000 I-1.376 J-0.787
G1 X6.563 Y-9.876 Z1.000
G2 X5.187 Y-10.663 Z1.000 I-1.370 J0.798
G1 X-5.271 Y-10.622 Z1.000
G2 X-6.641 Y-9.824 Z1.000 I0.006 J1.585
G1 X-11.834 Y-0.746 Z1.000
G2 X-11.828 Y0.839 Z1.000 I1.376 J0.787
G1 X-6.563 Y9.876 Z1.000
G2 X-5.187 Y10.663 Z1.000 I1.370 J-0.798
G1 X5.271 Y10.622 Z1.000
G2 X6.641 Y9.824 Z1.000 I-0.006 J-1.585
G1 X7.611 Y8.127 Z1.000
G1 X7.611 Y8.127 Z0.800
G1 X11.834 Y0.746 Z0.800
G2 X11.828 Y-0.839 Z0.800 I-1.376 J-0.787
G1 X6.563 Y-9.876 Z0.800
G2 X5.187 Y-10.663 Z0.800 I-1.370 J0.798
G1 X-5.271 Y-10.622 Z0.800
G2 X-6.641 Y-9.824 Z0.800 I0.006 J1.585
G1 X-11.834 Y-0.746 Z0.800
G2 X-11.828 Y0.839 Z0.800 I1.376 J0.787
G1 X-6.563 Y9.876 Z0.800
G2 X-5.187 Y10.663 Z0.800 I1.370 J-0.798
G1 X5.271 Y10.622 Z0.800
G2 X6.641 Y9.824 Z0.800 I-0.006 J-1.585
G1 X7.611 Y8.127 Z0.800
G1 X7.611 Y8.127 Z0.600
G1 X11.834 Y0.746 Z0.600
G2 X11.828 Y-0.839 Z0.600 I-1.376 J-0.787
G1 X6.563 Y-9.876 Z0.600
G2 X5.187 Y-10.663 Z0.600 I-1.370 J0.798
G1 X-5.271 Y-10.622 Z0.600
G2 X-6.641 Y-9.824 Z0.600 I0.006 J1.585
G1 X-11.834 Y-0.746 Z0.600
G2 X-11.828 Y0.839 Z0.600 I1.376 J0.787
G1 X-6.563 Y9.876 Z0.600
G2 X-5.187 Y10.663 Z0.600 I1.370 J-0.798
G1 X5.271 Y10.622 Z0.600
G2 X6.641 Y9.824 Z0.600 I-0.006 J-1.585
G1 X7.611 Y8.127 Z0.600
G1 X7.611 Y8.127 Z0.400
G1 X11.834 Y0.746 Z0.400
G2 X11.828 Y-0.839 Z0.400 I-1.376 J-0.787
G1 X6.563 Y-9.876 Z0.400
G2 X5.187 Y-10.663 Z0.400 I-1.370 J0.798
G1 X-5.271 Y-10.622 Z0.400
G2 X-6.641 Y-9.824 Z0.400 I0.006 J1.585
G1 X-11.834 Y-0.746 Z0.400
G2 X-11.828 Y0.839 Z0.400 I1.376 J0.787
G1 X-6.563 Y9.876 Z0.400
G2 X-5.187 Y10.663 Z0.400 I1.370 J-0.798
G1 X5.271 Y10.622 Z0.400
G2 X6.641 Y9.824 Z0.400 I-0.006 J-1.585
G1 X7.611 Y8.127 Z0.400
G1 X7.611 Y8.127 Z0.200
G1 X11.834 Y0.746 Z0.200
G2 X11.828 Y-0.839 Z0.200 I-1.376 J-0.787
G1 X6.563 Y-9.876 Z0.200
G2 X5.187 Y-10.663 Z0.200 I-1.370 J0.798
G1 X-5.271 Y-10.622 Z0.200
G2 X-6.641 Y-9.824 Z0.200 I0.006 J1.585
G1 X-11.834 Y-0.746 Z0.200
G2 X-11.828 Y0.839 Z0.200 I1.376 J0.787
G1 X-6.563 Y9.876 Z0.200
G2 X-5.187 Y10.663 Z0.200 I1.370 J-0.798
G1 X5.271 Y10.622 Z0.200
G2 X6.641 Y9.824 Z0.200 I-0.006 J-1.585
G1 X7.611 Y8.127 Z0.200
G1 X7.611 Y8.127 Z0.000
G1 X11.834 Y0.746 Z0.000
G2 X11.828 Y-0.839 Z0.000 I-1.376 J-0.787
G1 X6.563 Y-9.876 Z0.000
G2 X5.187 Y-10.663 Z0.000 I-1.370 J0.798
G1 X-5.271 Y-10.622 Z0.000
G2 X-6.641 Y-9.824 Z0.000 I0.006 J1.585
G1 X-11.834 Y-0.746 Z0.000
G2 X-11.828 Y0.839 Z0.000 I1.376 J0.787
G1 X-6.563 Y9.876 Z0.000
G2 X-5.187 Y10.663 Z0.000 I1.370 J-0.798
G1 X5.271 Y10.622 Z0.000
G2 X6.641 Y9.824 Z0.000 I-0.006 J-1.585
G1 X7.611 Y8.127 Z0.000
G1 X7.611 Y8.127 Z-0.200
G1 X11.834 Y0.746 Z-0.200
G2 X11.828 Y-0.839 Z-0.200 I-1.376 J-0.787
G1 X6.563 Y-9.876 Z-0.200
G2 X5.187 Y-10.663 Z-0.200 I-1.370 J0.798
G1 X-5.271 Y-10.622 Z-0.200
G2 X-6.641 Y-9.824 Z-0.200 I0.006 J1.585
G1 X-11.834 Y-0.746 Z-0.200
G2 X-11.828 Y0.839 Z-0.200 I1.376 J0.787
G1 X-6.563 Y9.876 Z-0.200
G2 X-5.187 Y10.663 Z-0.200 I1.370 J-0.798
G1 X5.271 Y10.622 Z-0.200
G2 X6.641 Y9.824 Z-0.200 I-0.006 J-1.585
G1 X7.611 Y8.127 Z-0.200
G1 X7.611 Y8.127 Z-0.400
G1 X11.834 Y0.746 Z-0.400
G2 X11.828 Y-0.839 Z-0.400 I-1.376 J-0.787
G1 X6.563 Y-9.876 Z-0.400
G2 X5.187 Y-10.663 Z-0.400 I-1.370 J0.798
G1 X-5.271 Y-10.622 Z-0.400
G2 X-6.641 Y-9.824 Z-0.400 I0.006 J1.585
G1 X-11.834 Y-0.746 Z-0.400
G2 X-11.828 Y0.839 Z-0.400 I1.376 J0.787
G1 X-6.563 Y9.876 Z-0.400
G2 X-5.187 Y10.663 Z-0.400 I1.370 J-0.798
G1 X5.271 Y10.622 Z-0.400
G2 X6.641 Y9.824 Z-0.400 I-0.006 J-1.585
G1 X7.611 Y8.127 Z-0.400
G1 X7.611 Y8.127 Z-0.600
G1 X11.834 Y0.746 Z-0.600
G2 X11.828 Y-0.839 Z-0.600 I-1.376 J-0.787
G1 X6.563 Y-9.876 Z-0.600
G2 X5.187 Y-10.663 Z-0.600 I-1.370 J0.798
G1 X-5.271 Y-10.622 Z-0.600
G2 X-6.641 Y-9.824 Z-0.600 I0.006 J1.585
G1 X-11.834 Y-0.746 Z-0.600
G2 X-11.828 Y0.839 Z-0.600 I1.376 J0.787
G1 X-6.563 Y9.876 Z-0.600
G2 X-5.187 Y10.663 Z-0.600 I1.370 J-0.798
G1 X5.271 Y10.622 Z-0.600
G2 X6.641 Y9.824 Z-0.600 I-0.006 J-1.585
G1 X7.611 Y8.127 Z-0.600
G1 X7.611 Y8.127 Z-0.800
G1 X11.834 Y0.746 Z-0.800
G2 X11.828 Y-0.839 Z-0.800 I-1.376 J-0.787
G1 X6.563 Y-9.876 Z-0.800
G2 X5.187 Y-10.663 Z-0.800 I-1.370 J0.798
G1 X-5.271 Y-10.622 Z-0.800
G2 X-6.641 Y-9.824 Z-0.800 I0.006 J1.585
G1 X-11.834 Y-0.746 Z-0.800
G2 X-11.828 Y0.839 Z-0.800 I1.376 J0.787
G1 X-6.563 Y9.876 Z-0.800
G2 X-5.187 Y10.663 Z-0.800 I1.370 J-0.798
G1 X5.271 Y10.622 Z-0.800
G2 X6.641 Y9.824 Z-0.800 I-0.006 J-1.585
G1 X7.611 Y8.127 Z-0.800
G1 X7.611 Y8.127 Z-1.000
G1 X11.834 Y0.746 Z-1.000
G2 X11.828 Y-0.839 Z-1.000 I-1.376 J-0.787
G1 X6.563 Y-9.876 Z-1.000
G2 X5.187 Y-10.663 Z-1.000 I-1.370 J0.798
G1 X-5.271 Y-10.622 Z-1.000
G2 X-6.641 Y-9.824 Z-1.000 I0.006 J1.585
G1 X-11.834 Y-0.746 Z-1.000
G2 X-11.828 Y0.839 Z-1.000 I1.376 J0.787
G1 X-6.563 Y9.876 Z-1.000
G2 X-5.187 Y10.663 Z-1.000 I1.370 J-0.798
G1 X5.271 Y10.622 Z-1.000
G2 X6.641 Y9.824 Z-1.000 I-0.006 J-1.585
G1 X7.611 Y8.127 Z-1.000
G0 Z8.000
;finish operation: Contour
;begin postamble
M5
