;Exported by Snapmaker
;Post Processor: snapmaker_freecad_post
;Output Time:2020-06-19 17:21:28.318192

G0 Z10.00 F120
G0 Z0.50 F120
G21
M3 S0
;finish operation: T1: flat end mill (3.175 mm)
G0 Z8.000
G0 X7.379 Y7.886
G0 Z6.000
G1 X7.379 Y7.886 Z-0.170 F300.000
G1 X11.462 Y0.746 Z-0.170 F300.000
G2 X11.456 Y-0.839 Z-0.170 I-1.376 J-0.787 F300.000
G1 X6.377 Y-9.554 Z-0.170 F300.000
G2 X5.001 Y-10.341 Z-0.170 I-1.369 J0.798 F300.000
G1 X-5.086 Y-10.299 Z-0.170 F300.000
G2 X-6.455 Y-9.501 Z-0.170 I0.006 J1.585 F300.000
G1 X-11.462 Y-0.746 Z-0.170 F300.000
G2 X-11.456 Y0.839 Z-0.170 I1.376 J0.787 F300.000
G1 X-6.377 Y9.554 Z-0.170 F300.000
G2 X-5.001 Y10.341 Z-0.170 I1.369 J-0.798 F300.000
G1 X5.086 Y10.299 Z-0.170 F300.000
G2 X6.455 Y9.501 Z-0.170 I-0.006 J-1.585 F300.000
G1 X7.379 Y7.886 Z-0.170 F300.000
G1 X7.379 Y7.886 Z-1.000 F300.000
G1 X11.462 Y0.746 Z-1.000 F300.000
G2 X11.456 Y-0.839 Z-1.000 I-1.376 J-0.787 F300.000
G1 X6.377 Y-9.554 Z-1.000 F300.000
G2 X5.001 Y-10.341 Z-1.000 I-1.369 J0.798 F300.000
G1 X-5.086 Y-10.299 Z-1.000 F300.000
G2 X-6.455 Y-9.501 Z-1.000 I0.006 J1.585 F300.000
G1 X-11.462 Y-0.746 Z-1.000 F300.000
G2 X-11.456 Y0.839 Z-1.000 I1.376 J0.787 F300.000
G1 X-6.377 Y9.554 Z-1.000 F300.000
G2 X-5.001 Y10.341 Z-1.000 I1.369 J-0.798 F300.000
G1 X5.086 Y10.299 Z-1.000 F300.000
G2 X6.455 Y9.501 Z-1.000 I-0.006 J-1.585 F300.000
G1 X7.379 Y7.886 Z-1.000 F300.000
G0 Z8.000
;finish operation: Contour001
;begin postamble
M5
